icons/heap.svg

<?xml version="1.0" encoding="UTF-8" standalone="no"?>
<svg width="256px" height="296px" viewBox="0 0 256 296" version="1.1" xmlns="http://www.w3.org/2000/svg" xmlns:xlink="http://www.w3.org/1999/xlink" preserveAspectRatio="xMidYMid">
    <defs>
        <linearGradient x1="49.8995881%" y1="100.003488%" x2="49.8995881%" y2="0.00311374074%" id="linearGradient-1">
            <stop stop-color="#F37C27" offset="0%"></stop>
            <stop stop-color="#ED3774" offset="100%"></stop>
        </linearGradient>
    </defs>
    <g>
        <path d="M24.8165779,207.36323 L24.8165779,88.229422 L127.997263,28.6488313 L127.997263,147.788114 L231.183422,88.229422 L231.183422,207.36323 L127.997263,266.943821 L24.8165779,207.36323 L24.8165779,207.36323 Z M115.591711,7.14441522 L12.4110263,66.7195312 L0,73.8967943 L0,88.2348966 L0,207.368705 L0,221.717756 L12.4110263,228.88407 L115.597186,288.464661 L127.997263,295.630975 L140.413764,288.453711 L243.594448,228.873121 L256,221.706807 L256,207.357755 L256,88.229422 L256,73.8913197 L243.594448,66.7140566 L140.413764,7.14441522 L127.997263,0 L115.591711,7.14441522 L115.591711,7.14441522 Z" fill="url(#linearGradient-1)"></path>
    </g>
</svg>

<svg xmlns="http://www.w3.org/2000/svg" viewBox="0 0 256 295.631">
  <defs>
    <linearGradient id="a" x1="137.275" x2="137.275" y1="275.112" y2=".009" gradientTransform="scale(.93056 1.07462)" gradientUnits="userSpaceOnUse">
      <stop offset="0%" stop-color="#F37C27"/>
      <stop offset="100%" stop-color="#ED3774"/>
    </linearGradient>
  </defs>
  <path fill="url(#a)" d="M24.817 207.363V88.23l103.18-59.58v119.14l103.186-59.56v119.134l-103.186 59.58zM115.592 7.144 12.41 66.72 0 73.897v147.821l12.411 7.166 103.186 59.58 12.4 7.167 12.417-7.177 103.18-59.58L256 221.706V73.89l-12.406-7.177-103.18-59.57L127.997 0z" style="fill:url(#a)"/>
</svg>
